X:268
T:Rheinländer efter Anders Sören,
T:(SvL Halland 268)
R:Schottis
S:Efter Karl Stenström
O:Eftra, Halland
B:Svenska Låtar Halland
N:Låten spelades i långsamt tempo (SvL)
Z:Till abc Jonas Brunskog
M:2/4
L:1/8
K:G
|:dd/B/ ee/c/|dd/B/ GG|cc/A/ FF|d(d/B/) GG|
dd/B/ ee/c/|dd/B/ GG|cc/A/ F/E/F/A/|AG G2:|
|:B,/D/B/A/ GB,|Cc/B/ AE|Fe/d/ cF|Ge/d/ BG|
B,/D/B/A/ GB,|Cc/B/ AE|Fe/d/ c/D/E/F/|AG G2:|

